svg/bolt-docs.svg

<svg width="32" height="32" fill="none" xmlns="http://www.w3.org/2000/svg"><path fill-rule="evenodd" clip-rule="evenodd" d="M21.048 6.291C19.836 6.05 18.256 6 16 6c-2.256 0-3.836.05-5.048.291-1.11.216-1.577.533-1.853.864-.32.384-.641 1.094-.844 2.597C8.046 11.283 8 13.274 8 16c0 2.725.046 4.717.255 6.248.203 1.503.524 2.213.844 2.597.276.331.743.648 1.853.864C12.164 25.95 13.744 26 16 26c2.256 0 3.836-.05 5.048-.291 1.11-.216 1.577-.533 1.853-.864.32-.384.641-1.094.843-2.597.21-1.531.256-3.523.256-6.248 0-2.726-.046-4.717-.256-6.248-.202-1.503-.523-2.213-.843-2.597-.276-.331-.743-.648-1.853-.864zM26 16c0-11-.833-12-10-12S6 5 6 16s.833 12 10 12 10-1 10-12z" fill="#000"/><path fill-rule="evenodd" clip-rule="evenodd" d="M16.75 7.532a1 1 0 0 1 .75.968v5h3a1 1 0 0 1 .874 1.486l-5 9A1 1 0 0 1 14.5 23.5v-5h-3a1 1 0 0 1-.874-1.486l5-9a1 1 0 0 1 1.125-.482zM13.2 16.5h2.3a1 1 0 0 1 1 1v2.14l2.3-4.14h-2.3a1 1 0 0 1-1-1v-2.14l-2.3 4.14z" fill="#000"/></svg>

<svg width="32" height="32" viewBox="0 0 32 32" fill="none" xmlns="http://www.w3.org/2000/svg">
<path fill-rule="evenodd" clip-rule="evenodd" d="M21.048 6.291C19.836 6.05 18.256 6 16 6C13.744 6 12.164 6.05 10.952 6.291C9.842 6.507 9.375 6.824 9.099 7.155C8.779 7.539 8.458 8.249 8.255 9.752C8.046 11.283 8 13.274 8 16C8 18.725 8.046 20.717 8.255 22.248C8.458 23.751 8.779 24.461 9.099 24.845C9.375 25.176 9.842 25.493 10.952 25.709C12.164 25.95 13.744 26 16 26C18.256 26 19.836 25.95 21.048 25.709C22.158 25.493 22.625 25.176 22.901 24.845C23.221 24.461 23.542 23.751 23.744 22.248C23.954 20.717 24 18.725 24 16C24 13.274 23.954 11.283 23.744 9.752C23.542 8.249 23.221 7.539 22.901 7.155C22.625 6.824 22.158 6.507 21.048 6.291ZM26 16C26 5 25.167 4 16 4C6.833 4 6 5 6 16C6 27 6.833 28 16 28C25.167 28 26 27 26 16Z" fill="black"/>
<path d="M11.5 17.5L16.5 8.5L16.5 14.5H20.5L15.5 23.5V17.5H11.5Z" stroke="black" stroke-width="2" stroke-linecap="round" stroke-linejoin="round"/>
</svg>
